Gurmukhi/0A6D.svg

<svg enable-background="new 0 0 336 592" viewBox="0 0 336 592" xmlns="http://www.w3.org/2000/svg"><path d="m213.811264 288.955261c4.198334-19.984588 4.294312-39.19519-6.538116-56.898391-6.586319-10.76384-16.638504-16.529831-29.358277-15.512314-12.830215 1.026336-21.902176 8.163498-27.097793 19.990692-8.301712 18.897842-2.960465 44.078735 18.087936 54.58194 1.154694.576202 2.470993 1.062408 3.011475 2.982391-5.130387 4.560058-11.327149 5.027862-17.610794 3.667572-17.315018-3.748444-27.035637-15.612213-32.006585-31.721985-8.153488-26.423614 3.710572-54.44397 27.35833-65.59021 22.689041-10.694351 53.225907-4.394943 69.563355 14.628784 17.310699 20.156998 22.627197 44.004303 20.509063 69.87558-1.978027 24.159973-11.665298 44.96936-28.533203 62.286194-14.574905 14.96283-32.389084 24.887115-51.881225 31.981445-10.658829 3.879364-21.638077 6.566742-32.726662 8.875702-3.726456.775971-6.274422.375672-7.490028-3.98938-1.379822-4.954773-3.358826-9.761963-5.340912-14.52362-1.599449-3.842469-.396775-5.349427 3.556213-5.987488 17.197327-2.775849 33.774643-7.628632 49.150726-15.969666 23.755478-12.886535 40.773346-31.331482 47.346497-58.677246z"/></svg>

<svg version="1.1" id="Layer_1" xmlns="http://www.w3.org/2000/svg" xmlns:xlink="http://www.w3.org/1999/xlink" x="0px" y="0px"
	 width="100%" viewBox="0 0 336 592" enable-background="new 0 0 336 592" xml:space="preserve">
<path fill="#000000" opacity="1.000000" stroke="none" 
	d="
M213.811264,288.955261 
	C218.009598,268.970673 218.105576,249.760071 207.273148,232.056870 
	C200.686829,221.293030 190.634644,215.527039 177.914871,216.544556 
	C165.084656,217.570892 156.012695,224.708054 150.817078,236.535248 
	C142.515366,255.433090 147.856613,280.613983 168.905014,291.117188 
	C170.059708,291.693390 171.376007,292.179596 171.916489,294.099579 
	C166.786102,298.659637 160.589340,299.127441 154.305695,297.767151 
	C136.990677,294.018707 127.270058,282.154938 122.299110,266.045166 
	C114.145622,239.621552 126.009682,211.601196 149.657440,200.454956 
	C172.346481,189.760605 202.883347,196.060013 219.220795,215.083740 
	C236.531494,235.240738 241.847992,259.088043 239.729858,284.959320 
	C237.751831,309.119293 228.064560,329.928680 211.196655,347.245514 
	C196.621750,362.208344 178.807571,372.132629 159.315430,379.226959 
	C148.656601,383.106323 137.677353,385.793701 126.588768,388.102661 
	C122.862312,388.878632 120.314346,388.478333 119.098740,384.113281 
	C117.718918,379.158508 115.739914,374.351318 113.757828,369.589661 
	C112.158379,365.747192 113.361053,364.240234 117.314041,363.602173 
	C134.511368,360.826324 151.088684,355.973541 166.464767,347.632507 
	C190.220245,334.745972 207.238113,316.301025 213.811264,288.955261 
z"/>
</svg>
